src/Icon/svgs/CouponOutline.svg

<svg width="24" height="24" viewBox="0 0 24 24" fill="none" xmlns="http://www.w3.org/2000/svg">
<path fill-rule="evenodd" clip-rule="evenodd" d="M1 5C1 4.44772 1.44772 4 2 4H13C13.5523 4 14 4.44772 14 5C14 5.55228 14.4477 6 15 6C15.5523 6 16 5.55228 16 5C16 4.44772 16.4477 4 17 4H22C22.5523 4 23 4.44772 23 5V19C23 19.5523 22.5523 20 22 20H17C16.4477 20 16 19.5523 16 19C16 18.4477 15.5523 18 15 18C14.4477 18 14 18.4477 14 19C14 19.5523 13.5523 20 13 20H2C1.44772 20 1 19.5523 1 19V5ZM3 6V18H12.1707C12.5825 16.8348 13.6938 16 15 16C16.3062 16 17.4175 16.8348 17.8293 18H21V6H17.8293C17.4175 7.16519 16.3062 8 15 8C13.6938 8 12.5825 7.16519 12.1707 6H3Z" fill="#1B1C1D"/>
</svg>

<svg xmlns="http://www.w3.org/2000/svg" width="24" height="24" fill="none"><path fill-rule="evenodd" d="M1 5a1 1 0 0 1 1-1h11a1 1 0 0 1 1 1 1 1 0 1 0 2 0 1 1 0 0 1 1-1h5a1 1 0 0 1 1 1v14a1 1 0 0 1-1 1h-5a1 1 0 0 1-1-1 1 1 0 1 0-2 0 1 1 0 0 1-1 1H2a1 1 0 0 1-1-1V5zm2 1v12h9.171a3 3 0 0 1 5.659 0H21V6h-3.171a3 3 0 0 1-5.659 0H3z" fill="#1B1C1D"/></svg>
